X: 10
T: Eileen Curran
Z: Paddy de Brún
S: https://thesession.org/tunes/132#setting50368
R: reel
M: 4/4
L: 1/8
K: Gdor
B|:~BAGF DG[G,G]B|A ~F3 dFcF|~BAGF DGGA|BABc dgga|
(3bag (3agf ~f2 de|fdcB AF [A,F]2|BAGF DG[G,G]A|1 (3Bcd ~[f,c]A [G,G]4:|2 (3Bcd ~cA BG (3Bcd||
|:~g3 d gb ag|ef (3gfe {fg}fgaf|[d,d]gg^f ~g3 a|(3bag af dgga|
(3bag (3agf {a}gf de| fdcB AF[A,F]2|BAGF DG[G,G]A|1 (3Bcd ~[f,c]A [G,G]4:|2 (3Bcd (3cd_e dg g||

%-------------------- TUNE SEPARATOR --------------------%

